src/assets/svg/copy.svg

<svg width="14" height="14" viewBox="0 0 14 14" fill="#464F60" xmlns="http://www.w3.org/2000/svg">
<path d="M3 5C3 3.89543 3.89543 3 5 3H12C13.1046 3 14 3.89543 14 5V12C14 13.1046 13.1046 14 12 14H5C3.89543 14 3 13.1046 3 12V5Z" />
<path d="M2 0C0.895431 0 0 0.895431 0 2V9C0 9.93192 0.637386 10.715 1.5 10.937V3.5C1.5 2.39543 2.39543 1.5 3.5 1.5H10.937C10.715 0.637386 9.93192 0 9 0H2Z" />
</svg>

<svg xmlns="http://www.w3.org/2000/svg" width="14" height="14" fill="#464F60" xmlns:v="https://vecta.io/nano"><path d="M3 5a2 2 0 0 1 2-2h7a2 2 0 0 1 2 2v7a2 2 0 0 1-2 2H5a2 2 0 0 1-2-2V5zM2 0a2 2 0 0 0-2 2v7a2 2 0 0 0 1.5 1.937V3.5a2 2 0 0 1 2-2h7.437A2 2 0 0 0 9 0H2z"/></svg>
